; generated by Slic3r 1.2.9 on 2017-07-04 at 08:47:06

; external perimeters extrusion width = 0.65mm
; perimeters extrusion width = 0.70mm
; infill extrusion width = 0.85mm
; solid infill extrusion width = 0.85mm
; top infill extrusion width = 0.65mm

M107
M190 S100 ; set bed temperature
M104 S245 ; set temperature
G21        ;metric values
G90        ;absolute positioning
M82        ;set extruder to absolute mode
M107       ;start with the fan off
G28 X0 Y0  ;move X/Y to min endstops
G28 Z0     ;move Z to min endstops
G1 Z15.0 F{travel_speed} ;move the platform down 15mm
G92 E0                  ;zero the extruded length
G1 F200 E3              ;extrude 3mm of feed stock
G92 E0                  ;zero the extruded length again
G1 F{travel_speed}
;Put printing message on LCD screen
M117 Printing...
M109 S245 ; wait for temperature to be reached
G21 ; set units to millimeters
G90 ; use absolute coordinates
M82 ; use absolute distances for extrusion
G92 E0
G1 Z0.195 F9000.000
G1 E-5.50000 F3000.00000
G92 E0
G1 X66.216 Y84.143 F9000.000
G1 E5.50000 F3000.00000
G1 X67.190 Y83.494 E5.57192 F1920.000
G1 X68.297 Y82.993 E5.64658
G1 X69.471 Y82.681 E5.72126
G1 X70.421 Y82.572 E5.78008
G1 X87.596 Y81.822 E6.83669
G1 X91.598 Y81.785 E7.08270
G1 X94.799 Y81.897 E7.27961 F1920.000
G1 X96.883 Y82.079 E7.40814
G1 X113.204 Y83.875 E8.41739
G1 X115.084 Y84.160 E8.53424
G1 X115.663 Y84.276 E8.57052
G1 X117.228 Y84.661 E8.66960
G1 X117.781 Y84.822 E8.70504
G1 X119.323 Y85.345 E8.80507
G1 X119.872 Y85.557 E8.84125
G1 X121.379 Y86.216 E8.94234
G1 X121.908 Y86.475 E8.97853
G1 X123.333 Y87.252 E9.07831
G1 X123.865 Y87.575 E9.11655
G1 X125.169 Y88.451 E9.21310
G1 X125.712 Y88.856 E9.25476
G1 X126.841 Y89.792 E9.34492
G1 X127.384 Y90.294 E9.39039
G1 X128.213 Y91.149 E9.46356
G1 X128.754 Y91.782 E9.51476
G1 X129.372 Y92.602 E9.57787
G1 X129.895 Y93.410 E9.63703
G1 X130.332 Y94.202 E9.69257
G1 X130.763 Y95.153 E9.75676
G1 X131.025 Y95.871 E9.80376
G1 X131.261 Y96.673 E9.85514
G1 X131.348 Y97.054 E9.87915
G1 X131.486 Y97.898 E9.93176
G1 X131.557 Y98.613 E9.97587
G1 X131.573 Y99.747 E10.04561
G1 X131.525 Y100.432 E10.08780
G1 X131.363 Y101.502 E10.15435
G1 X131.212 Y102.146 E10.19499
G1 X130.911 Y103.102 E10.25656
G1 X130.648 Y103.764 E10.30036
G1 X130.197 Y104.687 E10.36349
G1 X129.734 Y105.474 E10.41960
G1 X129.183 Y106.275 E10.47937
G1 X128.611 Y106.989 E10.53559
G1 X128.083 Y107.575 E10.58407
G1 X127.355 Y108.294 E10.64695
G1 X126.856 Y108.740 E10.68814
G1 X125.719 Y109.659 E10.77796
G1 X125.276 Y109.988 E10.81189
G1 X123.626 Y111.105 E10.93439
G1 X122.835 Y111.599 E10.99166
G1 X122.202 Y111.949 E11.03614
G1 X121.591 Y112.244 E11.07783
G1 X120.756 Y112.582 E11.13324
G1 X120.157 Y112.779 E11.17197
G1 X119.112 Y113.032 E11.23808
G1 X118.467 Y113.135 E11.27823
G1 X117.379 Y113.219 E11.34528
G1 X116.461 Y113.216 E11.40174
G1 X115.632 Y113.162 E11.45278
G1 X69.939 Y107.341 E14.28398
G1 X68.655 Y107.063 E14.36473
G1 X67.530 Y106.606 E14.43936
G1 X66.574 Y106.028 E14.50801
G1 X65.648 Y105.242 E14.58268
G1 X64.863 Y104.315 E14.65736
G1 X64.241 Y103.271 E14.73203
G1 X63.800 Y102.139 E14.80671
G1 X63.538 Y100.840 E14.88816
G1 X63.493 Y100.117 E14.93266
G1 X63.411 Y89.979 E15.55581
G1 X63.440 Y89.291 E15.59813
G1 X63.643 Y88.093 E15.67285
G1 X64.042 Y86.944 E15.74763
G1 X64.619 Y85.884 E15.82176
G1 X65.297 Y85.005 E15.89002
G1 X66.148 Y84.202 E15.96193
G1 E10.46193 F3000.00000
G92 E0
G1 X67.817 Y86.177 F9000.000
G1 E5.50000 F3000.00000
G1 X68.283 Y85.847 E5.53510 F1920.000
G1 X68.673 Y85.633 E5.56241
G1 X68.987 Y85.493 E5.58359
G1 X69.412 Y85.345 E5.61126
G1 X69.742 Y85.260 E5.63220
G1 X70.175 Y85.185 E5.65920
G1 X70.521 Y85.155 E5.68051
G1 X70.972 Y85.153 E5.70828
G1 X71.312 Y85.180 E5.72920
G1 X71.749 Y85.250 E5.75645
G1 X72.083 Y85.333 E5.77758
G1 X72.504 Y85.475 E5.80490
G1 X72.820 Y85.612 E5.82606
G1 X73.213 Y85.822 E5.85347
G1 X73.502 Y86.008 E5.87458
G1 X74.622 Y86.903 E5.96266
G1 X75.037 Y87.157 E5.99258
G1 X75.349 Y87.200 E6.01196
G1 X76.042 Y87.005 E6.05621
G1 X79.655 Y85.610 E6.29425
G1 X81.202 Y85.131 E6.39381
G1 X82.660 Y84.825 E6.48538
G1 X84.830 Y84.567 E6.61966
G1 X87.707 Y84.408 E6.79678
G1 X91.460 Y84.370 E7.02748
G1 X94.768 Y84.486 E7.23092 F1920.000
G1 X96.722 Y84.664 E7.35151
G1 X97.880 Y84.854 E7.42367
G1 X98.834 Y85.115 E7.48447
G1 X99.645 Y85.451 E7.53839
G1 X99.896 Y85.583 E7.55583
G1 X100.388 Y85.884 E7.59128
G1 X100.639 Y86.065 E7.61030
G1 X101.068 Y86.426 E7.64474
G1 X101.308 Y86.663 E7.66546
G1 X101.686 Y87.103 E7.70116
G1 X101.878 Y87.364 E7.72108
G1 X102.053 Y87.646 E7.74149
G1 X102.535 Y87.828 E7.77316
G1 X104.790 Y87.145 E7.91797
G1 X106.816 Y86.665 E8.04596
G1 X108.652 Y86.404 E8.15991
G1 X110.310 Y86.320 E8.26198
G1 X111.056 Y86.325 E8.30781
G1 X113.011 Y86.458 E8.42824
G1 X114.956 Y86.767 E8.54929
G1 X116.695 Y87.195 E8.65942
G1 X118.753 Y87.893 E8.79297
G1 X120.588 Y88.704 E8.91628
G1 X122.178 Y89.570 E9.02754
G1 X123.812 Y90.658 E9.14822
G1 X125.278 Y91.858 E9.26465
G1 X126.443 Y93.043 E9.36677
G1 X126.610 Y93.238 E9.38258
G1 X127.395 Y94.279 E9.46272
G1 X127.557 Y94.529 E9.48101
G1 X128.142 Y95.591 E9.55556
G1 X128.276 Y95.885 E9.57542
G1 X128.636 Y96.876 E9.64025
G1 X128.855 Y97.759 E9.69610
G1 X128.897 Y98.020 E9.71241
G1 X128.998 Y99.041 E9.77542
G1 X129.003 Y99.391 E9.79697
G1 X128.931 Y100.418 E9.86021
G1 X128.881 Y100.748 E9.88078
G1 X128.657 Y101.705 E9.94115
G1 X128.564 Y102.001 E9.96021
G1 X128.185 Y102.953 E10.02323
G1 X128.045 Y103.239 E10.04278
G1 X127.426 Y104.293 E10.11789
G1 X127.256 Y104.540 E10.13635
G1 X126.352 Y105.647 E10.22422
G1 X125.309 Y106.662 E10.31361
G1 X123.889 Y107.800 E10.42549
G1 X122.358 Y108.843 E10.53935
G1 X121.369 Y109.462 E10.61106
G1 X120.338 Y109.975 E10.68188
G1 X120.080 Y110.080 E10.69900
G1 X119.191 Y110.372 E10.75647
G1 X118.868 Y110.450 E10.77689
G1 X117.893 Y110.606 E10.83758
G1 X117.557 Y110.632 E10.85830
G1 X116.331 Y110.627 E10.93367
G1 X116.053 Y110.607 E10.95080
G1 X114.625 Y110.399 E11.03948
G1 X113.250 Y110.062 E11.12652
G1 X112.542 Y109.846 E11.17203
G1 X110.584 Y109.098 E11.30088
G1 X108.701 Y108.179 E11.42962
G1 X107.041 Y107.183 E11.54860
G1 X105.576 Y106.110 E11.66025
G1 X104.419 Y105.078 E11.75552
G1 X103.382 Y104.073 E11.84429
G1 X102.732 Y103.540 E11.89597
G1 X101.990 Y103.055 E11.95046
G1 X101.047 Y102.555 E12.01606
G1 X100.013 Y102.130 E12.08475
G1 X99.069 Y101.849 E12.14530
G1 X98.392 Y101.730 E12.18753
G1 X97.986 Y101.718 E12.21249
G1 X95.022 Y102.039 E12.39575
G1 X92.762 Y102.130 E12.53480
G1 X89.921 Y102.082 E12.70945
G1 X84.955 Y101.838 E13.01501
G1 X82.086 Y101.729 E13.19148
G1 X80.067 Y101.731 E13.31560
G1 X78.391 Y101.825 E13.41877
G1 X77.093 Y101.993 E13.49920
G1 X76.144 Y102.200 E13.55894
G1 X75.427 Y102.437 E13.60537
G1 X75.050 Y102.615 E13.63097
G1 X74.772 Y102.801 E13.65154
G1 X74.323 Y103.317 E13.69357
G1 X74.077 Y103.559 E13.71479
G1 X73.738 Y103.843 E13.74196
G1 X73.455 Y104.042 E13.76325
G1 X73.075 Y104.265 E13.79033
G1 X72.761 Y104.416 E13.81170
G1 X72.348 Y104.574 E13.83891
G1 X72.015 Y104.671 E13.86022
G1 X71.585 Y104.758 E13.88718
G1 X71.238 Y104.799 E13.90864
G1 X70.792 Y104.815 E13.93608
G1 X70.448 Y104.798 E13.95727
G1 X70.009 Y104.740 E13.98449
G1 X69.671 Y104.667 E14.00573
G1 X69.246 Y104.537 E14.03301
G1 X68.926 Y104.409 E14.05423
G1 X68.527 Y104.211 E14.08164
G1 X68.232 Y104.033 E14.10277
G1 X67.871 Y103.771 E14.13021
G1 X67.611 Y103.547 E14.15129
G1 X67.299 Y103.230 E14.17865
G1 X67.079 Y102.966 E14.19977
G1 X66.820 Y102.599 E14.22736
G1 X66.648 Y102.304 E14.24833
G1 X66.456 Y101.904 E14.27565
G1 X66.333 Y101.583 E14.29675
G1 X66.210 Y101.158 E14.32396
G1 X66.142 Y100.819 E14.34519
G1 X66.089 Y100.373 E14.37282
G1 X66.078 Y100.032 E14.39380
G1 X66.100 Y99.581 E14.42155
G1 X66.202 Y98.981 E14.45895
G1 X66.340 Y98.482 E14.49076
G1 X66.503 Y98.072 E14.51786
G1 X66.657 Y97.763 E14.53910
G1 X66.993 Y97.233 E14.57764
G1 X67.492 Y96.608 E14.62680
G1 X68.287 Y95.784 E14.69722
G1 X68.520 Y95.576 E14.71636
G1 X68.892 Y95.290 E14.74525
G1 X68.904 Y94.557 E14.79032
G1 X67.616 Y93.503 E14.89261
G1 X67.409 Y93.309 E14.91004
G1 X67.126 Y93.006 E14.93551
G1 X66.914 Y92.735 E14.95667
G1 X66.669 Y92.364 E14.98401
G1 X66.503 Y92.062 E15.00516
G1 X66.323 Y91.658 E15.03234
G1 X66.209 Y91.332 E15.05360
G1 X66.098 Y90.905 E15.08072
G1 X66.039 Y90.563 E15.10205
G1 X66.000 Y90.112 E15.12988
G1 X65.998 Y89.772 E15.15077
G1 X66.033 Y89.326 E15.17825
G1 X66.153 Y88.726 E15.21585
G1 X66.305 Y88.232 E15.24767
G1 X66.484 Y87.820 E15.27525
G1 X66.644 Y87.520 E15.29617
G1 X66.886 Y87.146 E15.32349
G1 X67.095 Y86.875 E15.34458
G1 X67.395 Y86.545 E15.37195
G1 X67.746 Y86.233 E15.40085
G1 E9.90085 F3000.00000
G92 E0
G1 X69.663 Y87.033 F9000.000
G1 X70.339 Y86.946 F9000.000
G1 X70.580 Y86.933 F9000.000
G1 X87.811 Y86.557 F9000.000
G1 X87.855 Y87.574 F9000.000
G1 X102.177 Y88.729 F9000.000
G1 E5.50000 F3000.00000
G1 X105.098 Y87.847 E5.68756 F1920.000
G1 X106.796 Y87.441 E5.79485
G1 X108.545 Y87.177 E5.90360
G1 X110.434 Y87.076 E6.01988
G1 X111.019 Y87.082 E6.05579
G1 X112.758 Y87.193 E6.16291
G1 X114.791 Y87.507 E6.28933
G1 X116.639 Y87.969 E6.40640
G1 X118.328 Y88.541 E6.51606
G1 X120.240 Y89.377 E6.64430
G1 X121.934 Y90.309 E6.76312
G1 X123.511 Y91.379 E6.88027
G1 X124.778 Y92.429 E6.98141
G1 X125.882 Y93.553 E7.07826
G1 X126.773 Y94.714 E7.16822
G1 X126.906 Y94.918 E7.18318
G1 X127.464 Y95.931 E7.25428
G1 X127.573 Y96.172 E7.27053
G1 X127.916 Y97.114 E7.33211
G1 X128.110 Y97.905 E7.38217
G1 X128.240 Y99.083 E7.45506
G1 X128.244 Y99.370 E7.47269
G1 X128.177 Y100.334 E7.53210
G1 X128.136 Y100.605 E7.54893
G1 X127.925 Y101.504 E7.60571
G1 X127.849 Y101.746 E7.62131
G1 X127.491 Y102.646 E7.68083
G1 X127.377 Y102.880 E7.69683
G1 X126.786 Y103.885 E7.76848
G1 X126.647 Y104.088 E7.78359
G1 X125.937 Y104.975 E7.85346
G1 X124.818 Y106.084 E7.95024
G1 X123.450 Y107.182 E8.05810
G1 X121.938 Y108.212 E8.17055
G1 X120.985 Y108.809 E8.23963
G1 X120.030 Y109.282 E8.30515
G1 X119.819 Y109.368 E8.31916
G1 X118.983 Y109.642 E8.37321
G1 X118.719 Y109.706 E8.38992
G1 X117.804 Y109.852 E8.44685
G1 X117.530 Y109.873 E8.46381
G1 X116.359 Y109.869 E8.53574
G1 X116.132 Y109.853 E8.54975
G1 X114.787 Y109.658 E8.63329
G1 X113.442 Y109.329 E8.71841
G1 X112.778 Y109.126 E8.76107
G1 X111.036 Y108.467 E8.87551
G1 X109.202 Y107.587 E9.00054
G1 X107.601 Y106.644 E9.11478
G1 X106.202 Y105.641 E9.22061
G1 X104.930 Y104.518 E9.32487
G1 X103.889 Y103.508 E9.41404
G1 X103.182 Y102.928 E9.47023
G1 X102.375 Y102.401 E9.52947
G1 X101.368 Y101.868 E9.59951
G1 X100.265 Y101.414 E9.67282
G1 X99.198 Y101.100 E9.74119
G1 X98.469 Y100.974 E9.78668
G1 X97.959 Y100.958 E9.81800
G1 X95.097 Y101.273 E9.99499
G1 X92.763 Y101.372 E10.13856
G1 X89.952 Y101.324 E10.31139
G1 X84.988 Y101.080 E10.61683
G1 X82.100 Y100.971 E10.79447
G1 X80.045 Y100.973 E10.92078
G1 X78.322 Y101.070 E11.02689
G1 X76.964 Y101.245 E11.11102
G1 X75.944 Y101.468 E11.17521
G1 X75.188 Y101.714 E11.22405
G1 X74.677 Y101.953 E11.25878
G1 X74.350 Y102.165 E11.28271
G1 X74.142 Y102.354 E11.30000
G1 X73.768 Y102.799 E11.33569
G1 X73.567 Y102.997 E11.35305
G1 X73.276 Y103.241 E11.37640
G1 X73.044 Y103.404 E11.39381
G1 X72.718 Y103.596 E11.41708
G1 X72.461 Y103.719 E11.43456
G1 X72.106 Y103.855 E11.45793
G1 X71.834 Y103.934 E11.47537
G1 X71.464 Y104.009 E11.49853
G1 X71.181 Y104.043 E11.51609
G1 X70.798 Y104.056 E11.53965
G1 X70.516 Y104.042 E11.55698
G1 X70.139 Y103.992 E11.58036
G1 X69.862 Y103.933 E11.59774
G1 X69.498 Y103.821 E11.62117
G1 X69.235 Y103.717 E11.63853
G1 X68.893 Y103.546 E11.66207
G1 X68.458 Y103.260 E11.69407
G1 X68.129 Y102.992 E11.72011
G1 X67.861 Y102.720 E11.74361
G1 X67.681 Y102.504 E11.76088
G1 X67.459 Y102.189 E11.78457
G1 X67.318 Y101.948 E11.80172
G1 X67.153 Y101.604 E11.82518
G1 X67.053 Y101.342 E11.84245
G1 X66.947 Y100.976 E11.86582
G1 X66.862 Y100.457 E11.89816
G1 X66.837 Y100.037 E11.92402
G1 X66.856 Y99.650 E11.94783
G1 X66.892 Y99.375 E11.96487
G1 X66.974 Y99.000 E11.98851
G1 X67.056 Y98.734 E12.00561
G1 X67.196 Y98.382 E12.02889
G1 X67.322 Y98.129 E12.04627
G1 X67.606 Y97.680 E12.07891
G1 X67.931 Y97.260 E12.11155
G1 X68.813 Y96.330 E12.19034
G1 X69.003 Y96.160 E12.20600
G1 X70.187 Y95.252 E12.29770
G1 X70.150 Y94.460 E12.34642
G1 X69.352 Y93.944 E12.40484
G1 X68.115 Y92.933 E12.50302
G1 X67.703 Y92.512 E12.53921
G1 X67.529 Y92.291 E12.55652
G1 X67.318 Y91.972 E12.58000
G1 X67.183 Y91.726 E12.59731
G1 X67.029 Y91.379 E12.62065
G1 X66.935 Y91.111 E12.63805
G1 X66.840 Y90.744 E12.66134
G1 X66.792 Y90.465 E12.67880
G1 X66.758 Y90.078 E12.70267
G1 X66.757 Y89.800 E12.71976
G1 X66.787 Y89.417 E12.74336
G1 X66.831 Y89.141 E12.76051
G1 X66.924 Y88.768 E12.78416
G1 X67.013 Y88.504 E12.80130
G1 X67.167 Y88.150 E12.82498
G1 X67.298 Y87.905 E12.84210
G1 X67.505 Y87.584 E12.86556
G1 X67.677 Y87.362 E12.88281
G1 X67.934 Y87.079 E12.90631
G1 X68.140 Y86.888 E12.92358
G1 X68.440 Y86.652 E12.94702
G1 X68.675 Y86.497 E12.96435
G1 X69.009 Y86.313 E12.98780
G1 X69.267 Y86.199 E13.00513
G1 X69.632 Y86.072 E13.02887
G1 X69.902 Y86.002 E13.04601
G1 X70.274 Y85.938 E13.06920
G1 X70.556 Y85.913 E13.08664
G1 X70.944 Y85.911 E13.11047
G1 X71.221 Y85.933 E13.12758
G1 X71.597 Y85.994 E13.15099
G1 X71.870 Y86.061 E13.16828
G1 X72.232 Y86.183 E13.19174
G1 X72.491 Y86.295 E13.20905
G1 X72.828 Y86.476 E13.23258
G1 X73.270 Y86.786 E13.26577
G1 X74.141 Y87.494 E13.33477
G1 X74.618 Y87.789 E13.36923
G1 X74.968 Y87.933 E13.39252
G1 X75.238 Y87.962 E13.40916
G1 X75.561 Y87.928 E13.42912
G1 X76.280 Y87.726 E13.47504
G1 X79.792 Y86.366 E13.70651
G1 X81.210 Y85.912 E13.79804
G1 X82.951 Y85.546 E13.90737
G1 X84.883 Y85.324 E14.02694
G1 X87.818 Y85.163 E14.20757
G1 X91.365 Y85.127 E14.42564
G1 X94.828 Y85.250 E14.63861
G1 X96.638 Y85.417 E14.75033
G1 X97.733 Y85.598 E14.81853
G1 X98.600 Y85.837 E14.87380
G1 X99.316 Y86.135 E14.92153
G1 X99.967 Y86.516 E14.96787
G1 X100.557 Y86.986 E15.01424
G1 X100.753 Y87.180 E15.03119
G1 X101.093 Y87.575 E15.06319
G1 X101.249 Y87.789 E15.07949
G1 X101.528 Y88.238 E15.11200
G1 X101.672 Y88.516 E15.13123
G1 X102.094 Y88.694 E15.15939
G1 X101.698 Y89.619 F9000.000
G1 X102.385 Y89.458 E15.20275 F1920.000
G1 X105.208 Y88.602 E15.38409
G1 X106.956 Y88.183 E15.49456
G1 X108.765 Y87.917 E15.60694
G1 X110.365 Y87.836 E15.70546
G1 X110.906 Y87.837 E15.73866
G1 X112.812 Y87.961 E15.85609
G1 X114.626 Y88.248 E15.96893
G1 X116.302 Y88.660 E16.07504
G1 X118.176 Y89.295 E16.19664
G1 X119.891 Y90.051 E16.31187
G1 X121.421 Y90.885 E16.41896
G1 X122.935 Y91.895 E16.53086
G1 X124.279 Y92.999 E16.63773
G1 X125.427 Y94.188 E16.73935
G1 X126.152 Y95.149 E16.81330
G1 X126.786 Y96.272 E16.89255
G1 X126.871 Y96.459 E16.90519
G1 X127.195 Y97.351 E16.96353
G1 X127.366 Y98.051 E17.00781
G1 X127.483 Y99.126 E17.07428
G1 X127.486 Y99.349 E17.08799
G1 X127.423 Y100.251 E17.14357
G1 X127.391 Y100.461 E17.15666
G1 X127.193 Y101.304 E17.20986
G1 X126.797 Y102.339 E17.27798
G1 X126.708 Y102.521 E17.29043
G1 X126.038 Y103.635 E17.37035
G1 X125.255 Y104.599 E17.44669
G1 X124.425 Y105.418 E17.51833
G1 X123.010 Y106.564 E17.63026
G1 X121.473 Y107.610 E17.74450
G1 X120.601 Y108.155 E17.80774
G1 X119.722 Y108.589 E17.86796
G1 X118.776 Y108.913 E17.92946
G1 X118.570 Y108.962 E17.94246
G1 X117.716 Y109.099 E17.99564
G1 X117.502 Y109.115 E18.00883
G1 X116.387 Y109.111 E18.07732
G1 X114.948 Y108.917 E18.16659
G1 X113.633 Y108.595 E18.24979
G1 X113.014 Y108.405 E18.28959
G1 X111.321 Y107.765 E18.40086
G1 X109.547 Y106.912 E18.52184
G1 X108.003 Y106.001 E18.63206
G1 X106.662 Y105.038 E18.73353
G1 X105.441 Y103.958 E18.83371
G1 X104.395 Y102.942 E18.92329
G1 X103.631 Y102.317 E18.98398
G1 X102.760 Y101.747 E19.04797
G1 X101.689 Y101.180 E19.12245
G1 X100.517 Y100.698 E19.20038
G1 X99.413 Y100.370 E19.27114
G1 X98.545 Y100.218 E19.32531
G1 X97.932 Y100.199 E19.36300
G1 X95.025 Y100.518 E19.54274
G1 X92.765 Y100.614 E19.68180
G1 X89.983 Y100.567 E19.85282
G1 X85.021 Y100.323 E20.15814
G1 X82.114 Y100.212 E20.33696
G1 X80.024 Y100.215 E20.46545
G1 X78.252 Y100.314 E20.57450
G1 X76.835 Y100.498 E20.66234
G1 X75.744 Y100.735 E20.73097
